X: 575
T: Miss Monaghan
C: anon.
O: Ireland
B: Francis O'Neill: "The Dance Music of Ireland" (1907) no. 575
R: Reel
Z: Transcribed by Frank Nordberg - http://www.musicaviva.com
F: http://www.musicaviva.com/abc/tunes/ireland/oneill-1001/oneill-1001-057
5.abc
m: Tn2 = (3n/o/n/ m/n/
M: C|
L: 1/8
K: D
D2(3(FED) FAA2|(Bc)BA FAAB|dedB ABde|fede Tf2e2|D2(3(FED) FAA2|BcBA FAAB|
dedB ABdB|AFDF TE2D2||
(fa)ab (af)df|gefd edBc|dedB ABde|fede Te2d2|(fa)ab (af)df|gefd edBc|dedB
 ABdB|AFDF TE2D2||
defg abaf|gfed cAAG|FAdB cdeg|fdgf e2AA|defg abaf|gfed cAAc|defd ecdB|AFG
ED2 z2|]
W:
W:
W: From Musica Viva - http://www.musicaviva.com
W: the Internet center for free sheet music downloads.


